public/assets/logos/sum.svg

<svg width="65" height="64" viewBox="0 0 65 64" fill="none" xmlns="http://www.w3.org/2000/svg">
    <g clip-path="url(#clip0_220_33)">
        <path d="M32.5392 2.6941e-08C26.2099 -0.000259619 20.0227 1.87625 14.76 5.39224C9.49727 8.90823 5.39538 13.9058 2.97303 19.7529C0.550688 25.6 -0.0833085 32.0342 1.15121 38.2416C2.38574 44.449 5.43333 50.151 9.90861 54.6265C14.3839 59.1019 20.0859 62.1499 26.2935 63.3849C32.5011 64.6198 38.9355 63.9864 44.783 61.5646C50.6306 59.1429 55.6287 55.0416 59.1453 49.7793C62.6618 44.5171 64.5389 38.3303 64.5392 32.0013C64.5394 27.799 63.7118 23.6378 62.1038 19.7553C60.4957 15.8728 58.1387 12.3451 55.1672 9.37348C52.1957 6.40188 48.668 4.04464 44.7855 2.43633C40.903 0.828026 36.7417 0.000159668 32.5392 2.6941e-08V2.6941e-08ZM31.2578 4.26929C31.6996 3.82531 32.2114 3.45717 32.7729 3.17965C33.1424 3.41131 33.4842 3.6844 33.7917 3.9936C34.4373 4.64071 34.9226 5.42987 35.2088 6.298C35.495 7.16613 35.5742 8.08917 35.44 8.99335C35.3058 9.89754 34.9619 10.7578 34.4359 11.5054C33.9099 12.253 33.2163 12.8672 32.4105 13.2989C31.9893 13.0525 31.6018 12.7524 31.2578 12.4062C30.7234 11.872 30.2995 11.2377 30.0102 10.5396C29.721 9.84156 29.5721 9.09334 29.5721 8.33772C29.5721 7.5821 29.721 6.83389 30.0102 6.13581C30.2995 5.43774 30.7234 4.80349 31.2578 4.26929ZM12.3236 11.453C12.7487 11.3591 13.1827 11.3115 13.6181 11.3113C14.5322 11.3127 15.4333 11.5278 16.2495 11.9393C17.0656 12.3509 17.7743 12.9476 18.319 13.6817C18.8636 14.4158 19.229 15.267 19.3862 16.1675C19.5433 17.068 19.4878 17.9927 19.224 18.8679C18.3731 19.0881 17.4831 19.1107 16.6221 18.9339C15.7611 18.7571 14.952 18.3856 14.2568 17.8478C13.5616 17.31 12.9987 16.6202 12.6113 15.8312C12.2238 15.0423 12.0221 14.1752 12.0216 13.2962C12.0219 12.6696 12.1239 12.0471 12.3236 11.453ZM4.80604 33.2826C4.36199 32.84 3.99384 32.3272 3.71636 31.765C3.94958 31.3975 4.22255 31.0567 4.53034 30.7489C5.17696 30.1022 5.96606 29.616 6.83441 29.3292C7.70276 29.0423 8.62623 28.9628 9.53083 29.0971C10.4354 29.2313 11.296 29.5756 12.0436 30.1023C12.7912 30.6289 13.4051 31.3234 13.836 32.13C13.3902 32.8872 12.7771 33.5323 12.0435 34.016C11.3098 34.4996 10.4753 34.8089 9.60363 34.9201C8.73201 35.0314 7.84648 34.9417 7.01489 34.6578C6.1833 34.374 5.42772 33.9036 4.80604 33.2826ZM13.836 52.5154C13.2091 52.5168 12.5864 52.4148 11.9927 52.2135C11.7665 51.2139 11.8066 50.1725 12.1088 49.1933C12.4111 48.2141 12.9651 47.3313 13.7153 46.6332C14.4656 45.935 15.3859 45.4459 16.3844 45.2148C17.3828 44.9837 18.4244 45.0185 19.4052 45.3159C19.6254 46.1664 19.6481 47.0561 19.4714 47.9167C19.2947 48.7773 18.9233 49.5861 18.3857 50.281C17.8482 50.9759 17.1587 51.5386 16.37 51.9259C15.5814 52.3132 14.7146 52.5149 13.836 52.5154ZM33.8206 59.7333C33.3772 60.1766 32.8646 60.5446 32.3029 60.823C31.9353 60.5898 31.5945 60.3168 31.2867 60.009C30.6409 59.3617 30.1554 58.5724 29.8691 57.704C29.5828 56.8357 29.5036 55.9124 29.6378 55.008C29.772 54.1035 30.1159 53.243 30.642 52.4952C31.1682 51.7474 31.8619 51.133 32.6679 50.7011C33.4253 51.147 34.0706 51.7603 34.5544 52.4942C35.0382 53.228 35.3475 54.0628 35.4588 54.9346C35.5701 55.8065 35.4803 56.6922 35.1963 57.524C34.9124 58.3558 34.4418 59.1115 33.8206 59.7333ZM32.5392 48.4877C28.1669 48.4877 23.9737 46.7509 20.882 43.6593C17.7903 40.5678 16.0534 36.3747 16.0534 32.0026C16.0534 27.6305 17.7903 23.4375 20.882 20.3459C23.9737 17.2544 28.1669 15.5175 32.5392 15.5175C33.6955 15.517 34.8485 15.6393 35.9789 15.8825C36.6996 14.5267 37.7314 13.3609 38.9897 12.4808C40.2479 11.6006 41.6968 11.0312 43.2177 10.8191C44.7385 10.607 46.2879 10.7583 47.739 11.2606C49.19 11.7629 50.5014 12.6019 51.5656 13.7089C52.6298 14.8158 53.4165 16.1591 53.8612 17.6288C54.306 19.0985 54.3962 20.6526 54.1243 22.1638C53.8525 23.675 53.2264 25.1003 52.2973 26.3229C51.3683 27.5454 50.1627 28.5304 48.7795 29.1971C49.1918 31.5645 49.081 33.9934 48.4547 36.3133C47.8285 38.6333 46.702 40.788 45.1544 42.6264C43.6067 44.4647 41.6755 45.942 39.4962 46.9545C37.3168 47.9671 34.9423 48.4904 32.5392 48.4877ZM52.7548 52.5469C51.7549 52.7732 50.7131 52.7331 49.7335 52.4307C48.7539 52.1284 47.8707 51.5743 47.1723 50.8238C46.4739 50.0733 45.9846 49.1527 45.7533 48.1539C45.5221 47.1552 45.5569 46.1132 45.8544 45.1321C46.3271 45.0107 46.8131 44.9489 47.3012 44.9483C48.2151 44.9488 49.1158 45.1668 49.9288 45.5843C50.7418 46.0018 51.4437 46.6067 51.9766 47.3492C52.5095 48.0917 52.858 48.9503 52.9933 49.8541C53.1287 50.7579 53.0469 51.681 52.7548 52.5469ZM52.2665 33.2537C51.8587 32.8449 51.5128 32.3788 51.2398 31.87C51.4893 31.4502 51.7901 31.063 52.1352 30.7174C52.7815 30.0715 53.5724 29.5887 54.4423 29.3091C55.3123 29.0295 56.2363 28.961 57.1379 29.1093C58.0396 29.2576 58.893 29.6184 59.6275 30.162C60.3621 30.7055 60.9566 31.4161 61.362 32.235C60.8932 32.9785 60.263 33.6071 59.5181 34.0739C58.7733 34.5407 57.9329 34.834 57.0593 34.9318C56.1857 35.0297 55.3012 34.9296 54.4716 34.6391C53.6419 34.3486 52.8882 33.8751 52.2665 33.2537Z"
              fill="white"/>
        <path d="M46.2248 32.0014C46.2248 32.1773 46.2222 32.3558 46.2169 32.5318C46.2091 32.7077 46.1986 32.881 46.1854 33.0543C46.1723 33.2276 46.1565 33.4009 46.1355 33.5742C46.1172 33.7448 46.0962 33.9155 46.0673 34.0862C45.7961 35.8607 45.1768 37.5641 44.245 39.0985C44.0166 39.474 43.7706 39.8381 43.5072 40.1908C42.09 42.0864 40.206 43.5827 38.0386 44.5338C35.8713 45.4849 33.4945 45.8584 31.1399 45.618C30.9088 45.5943 30.6804 45.5655 30.452 45.5313C30.2261 45.4946 30.0029 45.4552 29.7798 45.4105C29.3373 45.3209 28.9 45.2078 28.4695 45.0718C27.8304 44.8754 27.2071 44.6305 26.6052 44.3393C26.3059 44.1949 26.0118 44.04 25.7256 43.8745C25.4394 43.7091 25.1584 43.5332 24.8854 43.3494C24.7725 43.2733 24.6595 43.1945 24.5493 43.1157L24.5466 43.1131C24.4364 43.0343 24.3261 42.9529 24.2184 42.8689H24.2158C24.0005 42.7035 23.7878 42.5328 23.583 42.3517C23.3756 42.1705 23.1734 41.9867 22.9764 41.795C22.8793 41.6979 22.7821 41.6034 22.6876 41.5036C22.5905 41.4064 22.4959 41.3067 22.404 41.2043C22.2202 41.0021 22.0417 40.7947 21.871 40.5794C21.7003 40.3667 21.5323 40.1488 21.3747 39.9256C21.0569 39.4766 20.7658 39.0093 20.503 38.5261C20.3691 38.2819 20.2457 38.0377 20.1301 37.7857C19.2837 35.975 18.8462 34.0002 18.8488 32.0014C18.8488 31.5839 18.8698 31.1691 18.9065 30.7595C18.9275 30.5547 18.9512 30.3499 18.9774 30.1477C18.9906 30.0453 19.0063 29.9455 19.0221 29.8458C19.0378 29.746 19.0536 29.6462 19.072 29.5464C19.0825 29.4939 19.0929 29.4388 19.1061 29.3863C19.1166 29.3311 19.1271 29.2786 19.1376 29.2261C19.1875 28.9846 19.2426 28.743 19.3056 28.5067C19.3923 28.1811 19.4894 27.8608 19.5997 27.5457C19.7258 27.1729 19.8702 26.8053 20.0303 26.4456C20.1905 26.0885 20.3647 25.7393 20.5529 25.3979C20.6133 25.285 20.6763 25.1721 20.7419 25.0618C20.8469 24.8859 20.9572 24.7074 21.0701 24.5367C21.2356 24.282 21.4062 24.0352 21.59 23.7963C21.7712 23.5521 21.9629 23.3184 22.1598 23.0874C22.2885 22.9351 22.4224 22.7854 22.5589 22.6384C22.6718 22.515 22.7874 22.3968 22.9055 22.2787C22.9265 22.255 22.9502 22.2314 22.9738 22.2078H22.9764C24.5222 20.6955 26.4048 19.5715 28.4695 18.9284C28.8975 18.7971 29.3342 18.685 29.7797 18.5923C30.2293 18.5 30.6833 18.4308 31.1399 18.3848C31.2607 18.3717 31.3841 18.3612 31.5075 18.3507C31.8462 18.3271 32.1902 18.314 32.5368 18.314C33.0518 18.3145 33.5664 18.3443 34.0781 18.4032C34.3984 18.44 34.7135 18.4873 35.026 18.545C34.8276 19.5416 34.7868 20.5632 34.9052 21.5724V21.575C34.9262 21.7641 34.9551 21.9557 34.9892 22.1448C35.0234 22.3364 35.0654 22.5255 35.11 22.7172C35.465 24.1953 36.162 25.5695 37.145 26.7291C37.3183 26.9339 37.4994 27.1282 37.6885 27.3173C37.783 27.4118 37.8802 27.5037 37.9773 27.593C38.1743 27.7741 38.3764 27.9448 38.5865 28.1076C38.6915 28.189 38.7992 28.2704 38.9068 28.3465C40.7584 29.6736 43.0188 30.305 45.29 30.1293C45.5526 30.111 45.8178 30.0795 46.083 30.0374C46.1769 30.6879 46.2243 31.3442 46.2248 32.0014Z"
              fill="white"/>
        <path d="M23.583 42.3517C23.7878 42.5329 24.0005 42.7035 24.2158 42.8689C24.0005 42.7009 23.7878 42.5302 23.583 42.3517ZM22.9738 22.2078C22.9502 22.2314 22.9266 22.255 22.9055 22.2787L22.9764 22.2078H22.9738ZM22.4067 41.2043C22.2229 40.9995 22.0443 40.7921 21.871 40.5794C22.0417 40.7947 22.2202 41.0021 22.404 41.2043C22.4959 41.3067 22.5905 41.4065 22.6876 41.5036C22.5931 41.4038 22.4986 41.3041 22.4067 41.2043ZM21.59 23.7963C21.7738 23.5521 21.9629 23.3158 22.1598 23.0874C21.9629 23.3184 21.7712 23.5521 21.59 23.7963ZM21.0701 24.5367C21.2356 24.282 21.4089 24.0352 21.59 23.7963C21.4062 24.0352 21.2356 24.282 21.0701 24.5367ZM20.7419 25.0618C20.6763 25.1721 20.6133 25.285 20.5529 25.3979C20.6159 25.285 20.6789 25.1721 20.7446 25.0618C20.8496 24.8833 20.9572 24.7074 21.0701 24.5367C20.9572 24.7074 20.847 24.8859 20.7419 25.0618ZM20.1301 37.7857C20.2457 38.0378 20.3691 38.2819 20.503 38.5261C20.3717 38.2819 20.2457 38.0351 20.1301 37.7857ZM19.072 29.5464C19.0536 29.6462 19.0378 29.746 19.0221 29.8458C19.0378 29.746 19.0562 29.6462 19.0746 29.5464C19.0851 29.4939 19.0956 29.4388 19.1061 29.3863C19.093 29.4388 19.0825 29.4939 19.072 29.5464Z"
              fill="white"/>
    </g>
    <defs>
        <clipPath id="clip0_220_33">
            <rect width="64" height="64" fill="white" transform="translate(0.539429)"/>
        </clipPath>
    </defs>
</svg>

<svg width="65" height="64" viewBox="0 0 65 64" fill="none" xmlns="http://www.w3.org/2000/svg"><g clip-path="url(#a)" fill="#fff"><path d="M32.54 0A32.002 32.002 0 0 0 1.15 38.242a32 32 0 0 0 57.994 11.537A32 32 0 0 0 32.54 0Zm-1.282 4.27a5.7 5.7 0 0 1 1.515-1.09 5.86 5.86 0 0 1-.362 10.12 5.754 5.754 0 0 1-1.153-9.03Zm-18.934 7.183a5.865 5.865 0 0 1 6.9 7.415 5.76 5.76 0 0 1-6.9-7.415Zm-7.518 21.83a5.712 5.712 0 0 1-1.09-1.518 5.855 5.855 0 0 1 10.12.365 5.758 5.758 0 0 1-9.03 1.153Zm9.03 19.232a5.7 5.7 0 0 1-1.843-.301 5.858 5.858 0 0 1 7.412-6.898 5.757 5.757 0 0 1-5.569 7.2Zm19.985 7.218a5.772 5.772 0 0 1-1.518 1.09 5.863 5.863 0 0 1 .365-10.122 5.759 5.759 0 0 1 1.153 9.032Zm-1.282-11.245a16.486 16.486 0 1 1 0-32.97c1.157-.001 2.31.121 3.44.364a9.717 9.717 0 1 1 12.8 13.315 16.465 16.465 0 0 1-16.24 19.29Zm20.216 4.059a5.859 5.859 0 0 1-6.9-7.415 5.759 5.759 0 0 1 6.9 7.415Zm-.489-19.293a5.927 5.927 0 0 1-1.026-1.384 5.755 5.755 0 0 1 10.122.365 5.856 5.856 0 0 1-9.095 1.019Z"/><path d="M46.225 32.001c0 .176-.003.355-.008.53a16.467 16.467 0 0 1-.081 1.043 13.621 13.621 0 0 1-2.628 6.617 13.703 13.703 0 0 1-16.903 4.148 13.32 13.32 0 0 1-1.72-.99 14.864 14.864 0 0 1-.336-.233l-.002-.003a9.85 9.85 0 0 1-.329-.244h-.002a11.846 11.846 0 0 1-.633-.517c-.207-.181-.41-.365-.607-.557-.097-.097-.194-.192-.288-.291a12.18 12.18 0 0 1-.817-.924 13.385 13.385 0 0 1-1.74-2.794 13.618 13.618 0 0 1-1.109-7.94c.016-.1.032-.2.05-.3.01-.052.02-.107.034-.16l.032-.16a13.053 13.053 0 0 1 .462-1.68c.126-.373.27-.74.43-1.1a14.257 14.257 0 0 1 1.04-1.91c.166-.254.336-.5.52-.74.181-.244.373-.478.57-.709a12.866 12.866 0 0 1 .745-.808c.021-.024.045-.048.069-.071h.002a13.667 13.667 0 0 1 6.804-3.616 13.486 13.486 0 0 1 1.727-.241 13.594 13.594 0 0 1 3.519.194 9.71 9.71 0 0 0-.12 3.027v.003c.02.19.05.38.083.57a9.712 9.712 0 0 0 2.988 5.448 9.453 9.453 0 0 0 .93.753 9.676 9.676 0 0 0 7.176 1.691c.094.65.141 1.307.142 1.964Z"/><path d="M23.583 42.352Zm-.61-20.144-.067.07.07-.07h-.002Zm-.566 18.996a17.223 17.223 0 0 1-.536-.625 12.18 12.18 0 0 0 .817.925c-.095-.1-.19-.2-.281-.3Zm-.817-17.408Zm-.52.74Zm-.328.526c-.066.11-.129.223-.19.336.064-.113.127-.226.193-.336a11.756 11.756 0 0 1-.003 0Zm-.612 12.724Zm-1.058-8.24c-.018.1-.034.2-.05.3.016-.1.034-.2.053-.3l.031-.16a3.271 3.271 0 0 0-.034.16Z"/></g><defs><clipPath id="a"><path fill="#fff" d="M.54 0h64v64h-64z"/></clipPath></defs></svg>
